X: 33443
T: Rabbit Stew
R: reel
M: 4/4
K: Gmajor
|:BcBA GFGB|dBGB A2A2|ABcB ABcd|edef e2d2|
BcBA GFGB|dBGB A2A2|ABcB ABcd|1 edef g2GA:|2 edef g2Bd||
|:gdBG d2ef|gdBG ~d3d|~d3d ~d3d|~d3d d2ef|
gdBG d2ef|gdBG ~d3d|~d3d ~d3d|1 d2ef g2Bd:|2 d2ef g2GA||

